X:5655
T:Rosemary Lane
O:england
R:Jig
M:6/8
L:1/8
K:D
FEF DFA|dce dcB|AdB AFD|EFD EAG|
FEF DFA|dce dcB|Ade faf|gec dzG||
~F3 DFA|dce dcB|AdB AFD|E2{FE}D EAG|
F=F^F DFA|dce dcB|Ade f/2g/2af|{a}gec d2f||
a^ga fef|gfg efg|fed Bcd|ecB ABc|
dcd AFA|Bed cBA|faf gec|edc dfg||
~a3 ~f3|~g3 efg|fed Bcd|ecB ABc|
~d3 AFA|Bed cBA|f/2g/2af gec|edc dzG||
